X:46
T:Paaskysen Valssi  (The Swallow)
M:3/4
L:1/8
Q:1/4=150
R:waltz
K:Am
|: "Am" A,3 C E2 | A,3 C E2 | cd cB A2 | cd cB A2 | "E7" E3 ^G B2 | !
E3 ^G B2 | "Dm" de dc B2| "E7" de dc B2 | "Am" e3 fed | c4 e2 | !
ea ea ac' | e4 c'2 | "E7" c'4 ({d'c'}b2) |
({^g}e'4) e2 | e^g be ^gb | "Am" a6 :| !
|: "Am" ({e^f^g}a2) e=f ed | dc Ac ec | "E7" cB ^GB dB | "Am" ~c2 Ac e2 | !
({e^f^g}a2) e=f ed | dc Ac ec | "E7" cB ^GB dB |[1 "Am" A6 :|[2 "Am" A4 || !
|: e2 "E" | e^g be ^gb | "A" ea ^c'e ac' | "E" e^g be ^gb | !
"A" ea ^c'e ac' | "Am" e3 fed | dc Ac ec | "E" cB ^GB dc | "Am" A4 :||
